svgs/regular/dice-five.svg

<svg xmlns="http://www.w3.org/2000/svg" viewBox="0 0 448 512"><!-- Font Awesome Pro 6.0.0-alpha2 by @fontawesome - https://fontawesome.com License - https://fontawesome.com/license (Commercial License) --><path d="M128 128C110.375 128 96 142.375 96 160S110.375 192 128 192S160 177.625 160 160S145.625 128 128 128ZM128 320C110.375 320 96 334.375 96 352S110.375 384 128 384S160 369.625 160 352S145.625 320 128 320ZM320 320C302.375 320 288 334.375 288 352S302.375 384 320 384S352 369.625 352 352S337.625 320 320 320ZM320 128C302.375 128 288 142.375 288 160S302.375 192 320 192S352 177.625 352 160S337.625 128 320 128ZM384 32H64C28.625 32 0 60.625 0 96V416C0 451.375 28.625 480 64 480H384C419.375 480 448 451.375 448 416V96C448 60.625 419.375 32 384 32ZM400 416C400 424.875 392.875 432 384 432H64C55.125 432 48 424.875 48 416V96C48 87.125 55.125 80 64 80H384C392.875 80 400 87.125 400 96V416ZM224 224C206.375 224 192 238.375 192 256S206.375 288 224 288S256 273.625 256 256S241.625 224 224 224Z "></path></svg>

<svg xmlns="http://www.w3.org/2000/svg" viewBox="0 0 448 512"><!--! Font Awesome Pro 6.0.0-alpha3 by @fontawesome - https://fontawesome.com License - https://fontawesome.com/license (Commercial License) --><path d="M128 128C110.4 128 96 142.4 96 160s14.38 32 32 32s32-14.38 32-32S145.6 128 128 128zM128 320c-17.62 0-32 14.38-32 32s14.38 32 32 32s32-14.38 32-32S145.6 320 128 320zM320 320c-17.62 0-32 14.38-32 32s14.38 32 32 32s32-14.38 32-32S337.6 320 320 320zM320 128c-17.62 0-32 14.38-32 32s14.38 32 32 32s32-14.38 32-32S337.6 128 320 128zM384 32H64C28.63 32 0 60.63 0 96v320c0 35.38 28.62 64 64 64h320c35.38 0 64-28.62 64-64V96C448 60.63 419.4 32 384 32zM400 416c0 8.875-7.125 16-16 16H64c-8.875 0-16-7.125-16-16V96c0-8.875 7.125-16 16-16h320c8.875 0 16 7.125 16 16V416zM224 224C206.4 224 192 238.4 192 256s14.38 32 32 32s32-14.38 32-32S241.6 224 224 224z"/></svg>
